public/icon/svg/Symedia.svg

<?xml version="1.0" encoding="UTF-8"?>
<svg width="1024px" height="1024px" viewBox="0 0 1024 1024" version="1.1" xmlns="http://www.w3.org/2000/svg" xmlns:xlink="http://www.w3.org/1999/xlink">
    <title>Symedia</title>
    <defs>
        <linearGradient x1="70.2256299%" y1="0%" x2="4.68328833%" y2="145.80841%" id="linearGradient-1">
            <stop stop-color="#001F62" offset="0%"></stop>
            <stop stop-color="#090C0B" offset="100%"></stop>
        </linearGradient>
        <linearGradient x1="-0.0477425123%" y1="50.015395%" x2="99.9527939%" y2="50.015395%" id="linearGradient-2">
            <stop stop-color="#065FFE" offset="0%"></stop>
            <stop stop-color="#02AFEF" offset="50%"></stop>
            <stop stop-color="#01EFC6" offset="100%"></stop>
        </linearGradient>
        <linearGradient x1="0.00494747219%" y1="49.9793692%" x2="99.9313622%" y2="49.9793692%" id="linearGradient-3">
            <stop stop-color="#065FFE" offset="0%"></stop>
            <stop stop-color="#02AFEF" offset="50%"></stop>
            <stop stop-color="#01EFC6" offset="100%"></stop>
        </linearGradient>
        <linearGradient x1="36.736701%" y1="30.0809842%" x2="61.5406832%" y2="67.3486555%" id="linearGradient-4">
            <stop stop-color="#065FFE" offset="0%"></stop>
            <stop stop-color="#02AFEF" offset="50%"></stop>
            <stop stop-color="#01EFC6" offset="100%"></stop>
        </linearGradient>
        <linearGradient x1="72.5984772%" y1="25.63806%" x2="17.3365482%" y2="96.8370113%" id="linearGradient-5">
            <stop stop-color="#065FFE" offset="0%"></stop>
            <stop stop-color="#02AFEF" offset="50%"></stop>
            <stop stop-color="#01EFC6" offset="100%"></stop>
        </linearGradient>
        <linearGradient x1="100.059866%" y1="49.9140886%" x2="-0.0301565996%" y2="49.9140886%" id="linearGradient-6">
            <stop stop-color="#065FFE" offset="0%"></stop>
            <stop stop-color="#02AFEF" offset="50%"></stop>
            <stop stop-color="#01EFC6" offset="100%"></stop>
        </linearGradient>
        <linearGradient x1="100.012602%" y1="49.973979%" x2="0.0861872785%" y2="49.973979%" id="linearGradient-7">
            <stop stop-color="#065FFE" offset="0%"></stop>
            <stop stop-color="#02AFEF" offset="50%"></stop>
            <stop stop-color="#01EFC6" offset="100%"></stop>
        </linearGradient>
        <linearGradient x1="63.2755617%" y1="69.9030929%" x2="38.4714004%" y2="32.6800105%" id="linearGradient-8">
            <stop stop-color="#065FFE" offset="0%"></stop>
            <stop stop-color="#02AFEF" offset="50%"></stop>
            <stop stop-color="#01EFC6" offset="100%"></stop>
        </linearGradient>
        <linearGradient x1="27.2553299%" y1="74.5437131%" x2="82.5172589%" y2="2.84322025%" id="linearGradient-9">
            <stop stop-color="#065FFE" offset="0%"></stop>
            <stop stop-color="#02AFEF" offset="50%"></stop>
            <stop stop-color="#01EFC6" offset="100%"></stop>
        </linearGradient>
    </defs>
    <g id="ICON-新版方图标" stroke="none" stroke-width="1" fill="none" fill-rule="evenodd">
        <g id="Symedia" transform="translate(0.0305, -0.0008)">
            <polyline id="蒙版路径" fill="url(#linearGradient-1)" points="0 0 1023.93898 0 1023.93898 1024 0 1024"></polyline>
            <g id="编组" transform="translate(177, 171)" fill-rule="nonzero">
                <g id="路径">
                    <path d="M381.437193,342.099411 C368.133661,342.099411 354.414394,345.404813 342.358069,351.602442 C326.560125,359.865947 308.683505,364.410875 290.806884,364.410875 C229.278051,364.410875 179.805543,314.829844 179.805543,254.093081 C179.805543,193.356318 229.693786,143.775287 290.806884,143.775287 C309.514975,143.775287 327.807331,148.320215 344.02101,156.996896 L465,226.410339 L465,83.4516998 C465,19.4095349 395.15646,-20.668465 339.447921,11.1460298 L41.7814037,181.787411 C-13.9271346,214.015081 -13.9271346,294.171081 41.7814037,325.985576 L339.032186,496.626957 C394.740724,528.854627 464.584265,488.776627 464.584265,424.321287 L464.584265,421.015885 C462.921323,377.219308 425.920876,342.099411 381.437193,342.099411 Z" fill="#000000"></path>
                    <path d="M381.437193,342.099411 C368.133661,342.099411 354.414394,345.404813 342.358069,351.602442 C326.560125,359.865947 308.683505,364.410875 290.806884,364.410875 C229.278051,364.410875 179.805543,314.829844 179.805543,254.093081 C179.805543,193.356318 229.693786,143.775287 290.806884,143.775287 C309.514975,143.775287 327.807331,148.320215 344.02101,156.996896 L465,226.410339 L465,83.4516998 C465,19.4095349 395.15646,-20.668465 339.447921,11.1460298 L41.7814037,181.787411 C-13.9271346,214.015081 -13.9271346,294.171081 41.7814037,325.985576 L339.032186,496.626957 C394.740724,528.854627 464.584265,488.776627 464.584265,424.321287 L464.584265,421.015885 C462.921323,377.219308 425.920876,342.099411 381.437193,342.099411 Z" fill="#000000"></path>
                    <path d="M381.437193,342.099411 C368.133661,342.099411 354.414394,345.404813 342.358069,351.602442 C326.560125,359.865947 308.683505,364.410875 290.806884,364.410875 C229.278051,364.410875 179.805543,314.829844 179.805543,254.093081 C179.805543,193.356318 229.693786,143.775287 290.806884,143.775287 C309.514975,143.775287 327.807331,148.320215 344.02101,156.996896 L465,226.410339 L465,83.4516998 C465,19.4095349 395.15646,-20.668465 339.447921,11.1460298 L41.7814037,181.787411 C-13.9271346,214.015081 -13.9271346,294.171081 41.7814037,325.985576 L339.032186,496.626957 C394.740724,528.854627 464.584265,488.776627 464.584265,424.321287 L464.584265,421.015885 C462.921323,377.219308 425.920876,342.099411 381.437193,342.099411 Z" fill="url(#linearGradient-2)"></path>
                    <path d="M153.647391,117.652266 C153.647391,117.652266 114.535092,235.500195 204.749665,323.9197 C204.749665,323.9197 179.805543,292.105205 179.805543,254.093081 C179.805543,193.356318 229.693786,143.775287 290.806884,143.775287 C309.514975,143.775287 327.807331,148.320215 344.02101,156.996896 L465,226.410339 L465,83.4516998 C465,19.4095349 395.15646,-20.668465 339.447921,11.1460298 L153.647391,117.652266 C149.490038,135.005627 147.378185,153.278318 147.378185,171.871205 C147.378185,153.278318 149.490038,135.005627 153.647391,117.652266 Z" fill="url(#linearGradient-3)"></path>
                    <path d="M352.751453,459.028009 L60.0737595,291.69203 C25.1519893,271.446442 11.8484578,232.607968 20.9946357,198.727597 C-12.6799285,236.326545 -5.61242736,298.716009 42.197139,325.985576 L339.447921,496.626957 C392.662047,527.201926 458.328912,491.680468 464.152412,433.009581 C440.452292,467.303128 393.077783,482.578998 352.751453,459.028009 Z" fill="url(#linearGradient-4)"></path>
                    <path d="M219.300402,169.805329 C219.300402,169.805329 279.551519,109.976828 464.969489,117.000808 L465,226.410339 L344.02101,157.410071 C343.605275,157.410071 282.907912,119.397947 219.300402,169.805329 Z" fill="url(#linearGradient-5)"></path>
                </g>
                <g transform="translate(204.9695, 174.0884)" id="路径">
                    <path d="M84.0090534,165.610467 C97.3125849,165.610467 111.031852,162.307106 123.088177,156.113304 C138.886121,147.854901 156.762741,143.312779 174.639362,143.312779 C235.75246,143.312779 285.640703,192.863197 285.640703,253.562459 C285.640703,314.261721 235.75246,363.81214 174.639362,363.81214 C155.931271,363.81214 137.638915,359.270018 121.425236,350.598695 L0.446246102,281.228109 L0.446246102,424.511402 C0.446246102,488.514025 70.2897866,528.567279 125.998325,496.772428 L423.249107,326.236406 C478.957645,294.028634 478.957645,213.922125 423.249107,182.127273 L125.998325,11.5912514 C70.2897866,-20.6165204 0.446246102,19.4367342 0.446246102,83.8522776 L0.446246102,87.1556389 C2.10918754,130.512255 39.1096346,165.610467 84.0090534,165.610467 Z" fill="#000000"></path>
                    <path d="M84.0090534,165.610467 C97.3125849,165.610467 111.031852,162.307106 123.088177,156.113304 C138.886121,147.854901 156.762741,143.312779 174.639362,143.312779 C235.75246,143.312779 285.640703,192.863197 285.640703,253.562459 C285.640703,314.261721 235.75246,363.81214 174.639362,363.81214 C155.931271,363.81214 137.638915,359.270018 121.425236,350.598695 L0.446246102,281.228109 L0.446246102,424.511402 C0.446246102,488.514025 70.2897866,528.567279 125.998325,496.772428 L423.249107,326.236406 C478.957645,294.028634 478.957645,213.922125 423.249107,182.127273 L125.998325,11.5912514 C70.2897866,-20.6165204 0.446246102,19.4367342 0.446246102,83.8522776 L0.446246102,87.1556389 C2.10918754,130.512255 39.1096346,165.610467 84.0090534,165.610467 Z" fill="#000000"></path>
                    <path d="M84.0090534,165.610467 C97.3125849,165.610467 111.031852,162.307106 123.088177,156.113304 C138.886121,147.854901 156.762741,143.312779 174.639362,143.312779 C235.75246,143.312779 285.640703,192.863197 285.640703,253.562459 C285.640703,314.261721 235.75246,363.81214 174.639362,363.81214 C155.931271,363.81214 137.638915,359.270018 121.425236,350.598695 L0.446246102,281.228109 L0.446246102,424.511402 C0.446246102,488.514025 70.2897866,528.567279 125.998325,496.772428 L423.249107,326.236406 C478.957645,294.028634 478.957645,213.922125 423.249107,182.127273 L125.998325,11.5912514 C70.2897866,-20.6165204 0.446246102,19.4367342 0.446246102,83.8522776 L0.446246102,87.1556389 C2.10918754,130.512255 39.1096346,165.610467 84.0090534,165.610467 Z" fill="url(#linearGradient-6)"></path>
                    <path d="M311.005717,390.634744 C311.005717,390.634744 312.462824,386.674609 313.818009,381.015816 C320.744063,352.094958 335.73224,257.683375 260.280846,183.778954 C260.280846,183.778954 285.224968,215.573806 285.224968,253.562459 C285.224968,314.261721 235.336724,363.81214 174.223627,363.81214 C155.515535,363.81214 137.223179,359.270018 121.0095,350.598695 L0.0305107422,281.228109 L0.0305107422,424.511402 C0.0305107422,488.514025 69.8740512,528.567279 125.582589,496.772428 L311.005717,390.634744 C315.578806,372.879178 317.652326,354.314976 317.652326,335.733569 C317.652326,354.314976 315.16307,373.292098 311.005717,390.634744 Z" fill="url(#linearGradient-7)"></path>
                    <path d="M112.279058,48.7540649 L404.956751,215.986726 C439.878521,236.219813 453.182053,275.034307 444.035875,308.89376 C477.710439,271.318026 470.642938,208.967083 422.833372,181.714353 L125.582589,11.1783312 C72.3684634,-19.3777599 6.74446488,16.2770095 0.924169847,74.9116709 C24.6210854,40.6392984 71.952728,25.6305365 112.279058,48.7540649 Z" fill="url(#linearGradient-8)"></path>
                    <path d="M246.145844,337.79817 C246.145844,337.79817 185.41797,397.932026 0,390.912383 L0,280.912383 L121.425236,350.185775 C121.425236,350.185775 182.122598,388.174428 246.145844,337.79817 Z" fill="url(#linearGradient-9)"></path>
                </g>
            </g>
        </g>
    </g>
</svg>

<svg xmlns="http://www.w3.org/2000/svg" width="1024" height="1024"><defs><linearGradient id="a" x1="70.226%" x2="4.683%" y1="0%" y2="145.808%"><stop offset="0%" stop-color="#001F62"/><stop offset="100%" stop-color="#090C0B"/></linearGradient><linearGradient id="b" x1="-.048%" x2="99.953%" y1="50.015%" y2="50.015%"><stop offset="0%" stop-color="#065FFE"/><stop offset="50%" stop-color="#02AFEF"/><stop offset="100%" stop-color="#01EFC6"/></linearGradient><linearGradient id="c" x1=".005%" x2="99.931%" y1="49.979%" y2="49.979%"><stop offset="0%" stop-color="#065FFE"/><stop offset="50%" stop-color="#02AFEF"/><stop offset="100%" stop-color="#01EFC6"/></linearGradient><linearGradient id="d" x1="36.737%" x2="61.541%" y1="30.081%" y2="67.349%"><stop offset="0%" stop-color="#065FFE"/><stop offset="50%" stop-color="#02AFEF"/><stop offset="100%" stop-color="#01EFC6"/></linearGradient><linearGradient id="e" x1="72.598%" x2="17.337%" y1="25.638%" y2="96.837%"><stop offset="0%" stop-color="#065FFE"/><stop offset="50%" stop-color="#02AFEF"/><stop offset="100%" stop-color="#01EFC6"/></linearGradient><linearGradient id="f" x1="100.06%" x2="-.03%" y1="49.914%" y2="49.914%"><stop offset="0%" stop-color="#065FFE"/><stop offset="50%" stop-color="#02AFEF"/><stop offset="100%" stop-color="#01EFC6"/></linearGradient><linearGradient id="g" x1="100.013%" x2=".086%" y1="49.974%" y2="49.974%"><stop offset="0%" stop-color="#065FFE"/><stop offset="50%" stop-color="#02AFEF"/><stop offset="100%" stop-color="#01EFC6"/></linearGradient><linearGradient id="h" x1="63.276%" x2="38.471%" y1="69.903%" y2="32.68%"><stop offset="0%" stop-color="#065FFE"/><stop offset="50%" stop-color="#02AFEF"/><stop offset="100%" stop-color="#01EFC6"/></linearGradient><linearGradient id="i" x1="27.255%" x2="82.517%" y1="74.544%" y2="2.843%"><stop offset="0%" stop-color="#065FFE"/><stop offset="50%" stop-color="#02AFEF"/><stop offset="100%" stop-color="#01EFC6"/></linearGradient></defs><g fill="none" fill-rule="evenodd"><path fill="url(#a)" d="M0 0h1023.939v1024H0" transform="translate(.03)"/><g fill-rule="nonzero"><path fill="#000" d="M558.468 513.099c-13.304 0-27.023 3.305-39.08 9.503-15.797 8.263-33.674 12.808-51.55 12.808-61.53 0-111.002-49.581-111.002-110.318 0-60.736 49.888-110.318 111.001-110.318 18.708 0 37 4.545 53.215 13.222L642.03 397.41V254.45c0-64.041-69.843-104.12-125.552-72.305L218.812 352.787c-55.709 32.227-55.709 112.383 0 144.198l297.25 170.641c55.71 32.228 125.553-7.85 125.553-72.306v-3.305c-1.663-43.796-38.664-78.916-83.147-78.916"/><path fill="#000" d="M558.468 513.099c-13.304 0-27.023 3.305-39.08 9.503-15.797 8.263-33.674 12.808-51.55 12.808-61.53 0-111.002-49.581-111.002-110.318 0-60.736 49.888-110.318 111.001-110.318 18.708 0 37 4.545 53.215 13.222L642.03 397.41V254.45c0-64.041-69.843-104.12-125.552-72.305L218.812 352.787c-55.709 32.227-55.709 112.383 0 144.198l297.25 170.641c55.71 32.228 125.553-7.85 125.553-72.306v-3.305c-1.663-43.796-38.664-78.916-83.147-78.916"/><path fill="url(#b)" d="M381.437 342.1c-13.303 0-27.023 3.305-39.079 9.502-15.798 8.264-33.674 12.809-51.551 12.809-61.529 0-111.001-49.581-111.001-110.318 0-60.737 49.888-110.318 111-110.318 18.709 0 37.001 4.545 53.215 13.222L465 226.41V83.452c0-64.042-69.844-104.12-125.552-72.306L41.78 181.787c-55.708 32.228-55.708 112.384 0 144.199l297.251 170.641c55.709 32.228 125.552-7.85 125.552-72.306v-3.305c-1.663-43.797-38.663-78.917-83.147-78.917" transform="translate(177.03 171)"/><path fill="url(#c)" d="M153.647 117.652S114.535 235.5 204.75 323.92c0 0-24.944-31.815-24.944-69.827 0-60.737 49.888-110.318 111-110.318 18.709 0 37.001 4.545 53.215 13.222L465 226.41V83.452c0-64.042-69.844-104.12-125.552-72.306l-185.8 106.506c-4.158 17.354-6.27 35.626-6.27 54.22 0-18.594 2.112-36.866 6.27-54.22" transform="translate(177.03 171)"/><path fill="url(#d)" d="M352.751 459.028 60.074 291.692c-34.922-20.246-48.226-59.084-39.08-92.964-33.674 37.599-26.606 99.988 21.203 127.258l297.25 170.641c53.215 30.575 118.882-4.947 124.705-63.617-23.7 34.293-71.074 49.569-111.4 26.018" transform="translate(177.03 171)"/><path fill="url(#e)" d="M219.3 169.805s60.252-59.828 245.67-52.804l.03 109.41-120.979-69c-.416 0-61.113-38.013-124.72 12.394" transform="translate(177.03 171)"/><path fill="#000" d="M466.01 510.698c13.303 0 27.022-3.303 39.078-9.497 15.798-8.258 33.675-12.8 51.551-12.8 61.113 0 111.002 49.55 111.002 110.25 0 60.698-49.889 110.249-111.002 110.249-18.708 0-37-4.542-53.214-13.214l-120.979-69.37v143.283c0 64.003 69.844 104.056 125.552 72.261L805.25 671.324c55.709-32.208 55.709-112.314 0-144.11L508 356.68c-55.71-32.208-125.553 7.845-125.553 72.26v3.304c1.663 43.357 38.664 78.455 83.563 78.455"/><path fill="#000" d="M466.01 510.698c13.303 0 27.022-3.303 39.078-9.497 15.798-8.258 33.675-12.8 51.551-12.8 61.113 0 111.002 49.55 111.002 110.25 0 60.698-49.889 110.249-111.002 110.249-18.708 0-37-4.542-53.214-13.214l-120.979-69.37v143.283c0 64.003 69.844 104.056 125.552 72.261L805.25 671.324c55.709-32.208 55.709-112.314 0-144.11L508 356.68c-55.71-32.208-125.553 7.845-125.553 72.26v3.304c1.663 43.357 38.664 78.455 83.563 78.455"/><path fill="url(#f)" d="M84.01 165.61c13.303 0 27.022-3.303 39.078-9.497 15.798-8.258 33.675-12.8 51.551-12.8 61.113 0 111.002 49.55 111.002 110.25 0 60.699-49.889 110.25-111.002 110.25-18.708 0-37-4.543-53.214-13.214L.446 281.229V424.51c0 64.003 69.844 104.056 125.552 72.261L423.25 326.236c55.709-32.207 55.709-112.314 0-144.109L126 11.591C70.288-20.617.445 19.437.445 83.852v3.304C2.11 130.512 39.11 165.61 84.01 165.61" transform="translate(382 345.088)"/><path fill="url(#g)" d="M311.006 390.635s1.457-3.96 2.812-9.62c6.926-28.92 21.914-123.332-53.537-197.236 0 0 24.944 31.795 24.944 69.783 0 60.7-49.888 110.25-111.001 110.25-18.708 0-37-4.542-53.214-13.213L.03 281.229V424.51c0 64.003 69.844 104.056 125.553 72.261l185.423-106.137c4.573-17.756 6.646-36.32 6.646-54.901 0 18.581-2.489 37.558-6.646 54.9" transform="translate(382 345.088)"/><path fill="url(#h)" d="m112.28 48.754 292.677 167.233c34.922 20.233 48.225 59.047 39.079 92.907 33.674-37.576 26.607-99.927-21.203-127.18L125.583 11.178C72.368-19.378 6.744 16.277.924 74.912 24.621 40.639 71.953 25.63 112.28 48.754" transform="translate(382 345.088)"/><path fill="url(#i)" d="M246.146 337.798S185.418 397.932 0 390.912v-110l121.425 69.274s60.698 37.988 124.72-12.388" transform="translate(382 345.088)"/></g></g></svg>
